liquidity/ui/src/pages/Pools/pools.svg

<svg width="100" height="164" viewBox="0 0 100 164" fill="none" xmlns="http://www.w3.org/2000/svg">
    <path d="M54.4902 132.703L46.2822 127.964L46.2822 136.025L54.4902 140.763L54.4902 132.703Z" fill="#06061B" />
    <mask id="path-2-inside-1_9588_32860" fill="white">
        <path d="M95.2178 87.9097L52.7966 112.402L4.73398 84.6526L47.1552 60.1607L95.2178 87.9097Z" />
    </mask>
    <path d="M95.2178 87.9097L52.7966 112.402L4.73398 84.6526L47.1552 60.1607L95.2178 87.9097Z" fill="#6B59FF" />
    <path
        d="M52.7966 112.402L51.7562 113.002L52.7966 113.603L53.8369 113.002L52.7966 112.402ZM94.1774 87.309L51.7562 111.801L53.8369 113.002L96.2581 88.5103L94.1774 87.309ZM53.8369 111.801L5.77434 84.0519L3.69361 85.2532L51.7562 113.002L53.8369 111.801Z"
        fill="#AEA4FF" mask="url(#path-2-inside-1_9588_32860)" />
    <mask id="path-4-inside-2_9588_32860" fill="white">
        <path d="M95.2178 87.9097L52.7966 112.402L4.73398 84.6526L47.1552 60.1607L95.2178 87.9097Z" />
    </mask>
    <path d="M95.2178 87.9097L52.7966 112.402L4.73398 84.6526L47.1552 60.1607L95.2178 87.9097Z" fill="#6B59FF" />
    <path
        d="M52.7966 112.402L51.7562 113.002L52.7966 113.603L53.8369 113.002L52.7966 112.402ZM94.1774 87.309L51.7562 111.801L53.8369 113.002L96.2581 88.5103L94.1774 87.309ZM53.8369 111.801L5.77434 84.0519L3.69361 85.2532L51.7562 113.002L53.8369 111.801Z"
        fill="#AEA4FF" mask="url(#path-4-inside-2_9588_32860)" />
    <path
        d="M52.8273 112.404L43.6621 107.187L30.4786 99.5755L8.1581 86.6249L4.11183 89.7007L4.11183 96.6531L4.11183 104.208L4.11183 107.187L56.8455 135.937L56.8455 119.526L52.8273 112.404Z"
        fill="#402FC8" />
    <path
        d="M49.3954 110.427L40.2302 105.21L27.0468 97.5982L4.72621 84.6476L0.679941 87.7234L0.679941 94.6758L0.679941 96.7459L0.679941 101.817L53.4136 133.327L53.4136 117.548L49.3954 110.427Z"
        fill="#402FC8" />
    <path d="M56.8284 141.089L0.680301 108.672L0.680301 122.192L56.8284 154.609L56.8284 141.089Z" fill="#402FC8" />
    <path d="M56.8284 124.225L0.680301 91.808L0.680301 105.328L56.8284 137.745L56.8284 124.225Z" fill="#402FC8" />
    <path
        d="M8.13094 135.874L17.2962 141.091L30.4796 148.703L52.1881 161.281L56.8464 158.577L56.8464 151.625L56.8464 139.325L56.8464 148.703L4.11279 123.295L4.11279 128.753L8.13094 135.874Z"
        fill="#402FC8" />
    <path
        d="M4.69783 133.952L13.8631 139.169L27.0465 146.781L48.755 159.36L53.4133 156.655L53.4133 152.821L53.4133 150.048L53.4133 147.356L0.679688 121.5L0.679688 126.831L4.69783 133.952Z"
        fill="#402FC8" />
    <mask id="path-12-inside-3_9588_32860" fill="white">
        <path d="M99.2537 95.6543L56.8457 120.139L56.8457 137.744L99.2537 113.26L99.2537 95.6543Z" />
    </mask>
    <path d="M99.2537 95.6543L56.8457 120.139L56.8457 137.744L99.2537 113.26L99.2537 95.6543Z" fill="#2D1EA6" />
    <path d="M57.8861 119.538L57.8861 137.144L55.8054 138.345L55.8054 120.739L57.8861 119.538Z" fill="#AEA4FF"
        mask="url(#path-12-inside-3_9588_32860)" />
    <mask id="path-14-inside-4_9588_32860" fill="white">
        <path d="M99.2537 116.61L56.8457 141.095L56.8457 158.582L99.2537 134.098L99.2537 116.61Z" />
    </mask>
    <path d="M99.2537 116.61L56.8457 141.095L56.8457 158.582L99.2537 134.098L99.2537 116.61Z" fill="#2D1EA6" />
    <path d="M57.8861 140.494L57.8861 157.981L55.8054 159.183L55.8054 141.695L57.8861 140.494Z" fill="#AEA4FF"
        mask="url(#path-14-inside-4_9588_32860)" />
    <path d="M99.2549 116.613L58.3015 140.258L56.8461 139.417L97.7996 115.773L99.2549 116.613Z" fill="#6B59FF" />
    <path d="M74.7034 135.535L73.8302 136.039L73.8302 144.203L74.7034 143.699L74.7034 135.535Z" fill="#06061B" />
    <path d="M75.5764 135.028L74.7032 135.533L74.7032 143.698L75.5764 144.203L75.5764 135.028Z" fill="#402FC8" />
    <path d="M75.5758 144.203L73.8291 145.214L73.8294 144.203L74.7026 143.699L75.5758 144.203Z" fill="#6B59FF" />
    <path d="M77.3254 134.02L76.4522 134.524L76.4522 142.688L77.3254 142.184L77.3254 134.02Z" fill="#06061B" />
    <path d="M78.1982 133.514L77.325 134.018L77.325 142.184L78.1982 142.688L78.1982 133.514Z" fill="#402FC8" />
    <path d="M78.1979 142.688L76.4512 143.699L76.4515 142.688L77.3247 142.184L78.1979 142.688Z" fill="#6B59FF" />
    <path d="M79.9458 132.505L79.0726 133.01L79.0726 141.173L79.9458 140.669L79.9458 132.505Z" fill="#06061B" />
    <path d="M80.8188 131.999L79.9456 132.503L79.9456 140.669L80.8188 141.173L80.8188 131.999Z" fill="#402FC8" />
    <path d="M80.8185 141.173L79.0718 142.184L79.0721 141.173L79.9453 140.669L80.8185 141.173Z" fill="#6B59FF" />
    <path d="M82.5662 130.99L81.693 131.495L81.693 139.659L82.5662 139.154L82.5662 130.99Z" fill="#06061B" />
    <path d="M83.4392 130.484L82.566 130.988L82.566 139.154L83.4392 139.658L83.4392 130.484Z" fill="#402FC8" />
    <path d="M83.4389 139.659L81.6922 140.669L81.6925 139.659L82.5657 139.155L83.4389 139.659Z" fill="#6B59FF" />
    <path d="M74.7034 114.637L73.8302 115.141L73.8302 123.305L74.7034 122.801L74.7034 114.637Z" fill="#06061B" />
    <path d="M75.5764 114.131L74.7032 114.635L74.7032 122.801L75.5764 123.305L75.5764 114.131Z" fill="#402FC8" />
    <path d="M75.5758 123.305L73.8291 124.316L73.8294 123.305L74.7026 122.801L75.5758 123.305Z" fill="#6B59FF" />
    <path d="M77.3259 113.122L76.4527 113.626L76.4527 121.79L77.3259 121.286L77.3259 113.122Z" fill="#06061B" />
    <path d="M78.1992 112.616L77.326 113.121L77.326 121.286L78.1992 121.79L78.1992 112.616Z" fill="#402FC8" />
    <path d="M78.1986 121.791L76.4519 122.801L76.4522 121.791L77.3254 121.287L78.1986 121.791Z" fill="#6B59FF" />
    <path d="M79.9492 111.608L79.076 112.112L79.076 120.276L79.9492 119.772L79.9492 111.608Z" fill="#06061B" />
    <path d="M80.8223 111.101L79.9491 111.606L79.9491 119.772L80.8223 120.276L80.8223 111.101Z" fill="#402FC8" />
    <path d="M80.8217 120.276L79.075 121.286L79.0753 120.276L79.9485 119.772L80.8217 120.276Z" fill="#6B59FF" />
    <path d="M82.5725 110.093L81.6993 110.597L81.6993 118.761L82.5725 118.257L82.5725 110.093Z" fill="#06061B" />
    <path d="M83.4456 109.587L82.5724 110.091L82.5724 118.257L83.4456 118.761L83.4456 109.587Z" fill="#402FC8" />
    <path d="M83.445 118.761L81.6983 119.771L81.6986 118.761L82.5718 118.257L83.445 118.761Z" fill="#6B59FF" />
    <path d="M99.2537 116.61L97.7983 117.451L94.8996 115.777L96.3549 114.937L99.2537 116.61Z" fill="#6B59FF" />
    <path d="M96.3472 114.938L56.8535 137.74L56.8535 139.42L96.3472 116.618L96.3472 114.938Z" fill="#C9C9D9" />
    <path d="M58.3013 140.258L56.8459 141.098L50.9402 137.688L52.3956 136.848L58.3013 140.258Z" fill="#6B59FF" />
    <path d="M5.0332 107.84L2.13574 109.512L0.680409 108.672L3.57787 106.999L5.0332 107.84Z" fill="#6B59FF" />
    <path d="M99.2696 95.6611L95.2007 87.9136L52.887 112.39L56.941 120.128L99.2696 95.6611Z" fill="#3726C2" />
    <path d="M53.0078 112.303L57.0761 120.09" stroke="#AEA4FF" stroke-width="1.20131" />
    <path d="M99.3207 95.7396L57.0752 120.091" stroke="#AEA4FF" stroke-width="1.20131" />
    <rect width="42.0992" height="35.2465" transform="matrix(0.864779 0.502153 -0.864779 0.502153 47.0393 66.8833)"
        fill="#00D1FF" />
    <path d="M20.0471 86.6092L47.0657 70.9082L47.0657 74.9272L23.5095 88.6197L20.0471 86.6092Z" fill="#008EAD" />
    <path d="M47.0381 70.9239L79.9779 90.043L76.5238 92.0551L47.0381 74.9457L47.0381 70.9239Z" fill="#008EAD" />
    <path d="M47.0393 66.8833L83.4504 88.0273L79.9792 90.0436L47.0393 70.9519L47.0393 66.8833Z" fill="#402FC8" />
    <path d="M16.5588 84.5873L47.0461 66.8528L47.0461 70.9145L20.0552 86.6163L16.5588 84.5873Z" fill="#2D1EA6" />
    <path d="M11.7261 111.705L3.57622 107L3.57622 108.68L11.7261 113.386L11.7261 111.705Z" fill="#E2E2F0" />
    <path d="M7.96997 111.201L6.51464 112.042L0.679437 108.673L2.13477 107.832L7.96997 111.201Z" fill="#6B59FF" />
    <path d="M50.9414 137.693L56.8497 141.088L99.2508 116.612" stroke="#AEA4FF" />
    <path d="M0.6875 108.67L6.52517 112.038L11.5292 109.145" stroke="#AEA4FF" />
    <circle cx="20.5782" cy="20.5782" r="20.5782" transform="matrix(0.866025 0.5 -2.20305e-08 1 11.8862 90.7454)"
        fill="#2D1EA6" />
    <circle cx="20.5782" cy="20.5782" r="20.5782" transform="matrix(0.866025 0.5 -2.20305e-08 1 10.0901 91.7839)"
        fill="#06061B" />
    <path
        d="M17.4953 0H83.3586V81.6834C83.3586 84.6414 80.5789 87.0484 77.163 87.0484H23.6797C20.2638 87.0484 17.4841 84.6414 17.4841 81.6834V0H17.4953Z"
        fill="url(#paint0_linear_9588_32860)" />
    <path d="M75.3095 0H25.741V84.1629H75.3095V0Z" fill="url(#paint1_linear_9588_32860)" />
    <defs>
        <linearGradient id="paint0_linear_9588_32860" x1="50.4214" y1="0" x2="50.4214" y2="87.0484"
            gradientUnits="userSpaceOnUse">
            <stop stop-color="#2EDAFF" stop-opacity="0" />
            <stop offset="1" stop-color="#2EDAFF" stop-opacity="0.2" />
        </linearGradient>
        <linearGradient id="paint1_linear_9588_32860" x1="50.5252" y1="0" x2="50.5252" y2="84.1629"
            gradientUnits="userSpaceOnUse">
            <stop stop-color="#2EDAFF" stop-opacity="0" />
            <stop offset="0.864583" stop-color="#2EDAFF" stop-opacity="0.2" />
            <stop offset="1" stop-color="#2EDAFF" stop-opacity="0" />
        </linearGradient>
    </defs>
</svg>

<svg width="100" height="164" fill="none" viewBox="0 0 100 164" xmlns="http://www.w3.org/2000/svg">
  <path fill="#06061B" d="m54.49 132.703-8.208-4.739v8.061l8.208 4.738z"/>
  <mask id="a" fill="#fff">
    <path d="m95.218 87.91-42.421 24.492-48.063-27.75 42.421-24.491z"/>
  </mask>
  <path fill="#6B59FF" d="m95.218 87.91-42.421 24.492-48.063-27.75 42.421-24.491z"/>
  <path fill="#AEA4FF" d="m52.797 112.402-1.04.6 1.04.601 1.04-.601zm41.38-25.093-42.42 24.492 2.08 1.201L96.258 88.51zm-40.34 24.492L5.774 84.051l-2.08 1.202 48.062 27.749z" mask="url(#a)"/>
  <mask id="b" fill="#fff">
    <path d="m95.218 87.91-42.421 24.492-48.063-27.75 42.421-24.491z"/>
  </mask>
  <path fill="#6B59FF" d="m95.218 87.91-42.421 24.492-48.063-27.75 42.421-24.491z"/>
  <path fill="#AEA4FF" d="m52.797 112.402-1.04.6 1.04.601 1.04-.601zm41.38-25.093-42.42 24.492 2.08 1.201L96.258 88.51zm-40.34 24.492L5.774 84.051l-2.08 1.202 48.062 27.749z" mask="url(#b)"/>
  <path fill="#402FC8" d="m52.827 112.404-9.165-5.217-13.183-7.611-22.32-12.951L4.111 89.7v17.486l52.734 28.75v-16.411z"/>
  <path fill="#402FC8" d="m49.395 110.427-9.165-5.217-13.183-7.612-22.32-12.95L.68 87.723v14.094l52.734 31.51v-15.779zm7.433 30.662L.68 108.672v13.52l56.148 32.417z"/>
  <path fill="#402FC8" d="M56.828 124.225.68 91.808v13.52l56.148 32.417zM8.13 135.874l9.166 5.217 13.184 7.612 21.708 12.578 4.658-2.704v-19.252 9.378L4.113 123.295v5.458z"/>
  <path fill="#402FC8" d="m4.698 133.952 9.165 5.217 13.184 7.612 21.708 12.579 4.658-2.705v-9.299L.68 121.5v5.331z"/>
  <mask id="c" fill="#fff">
    <path d="M99.254 95.654 56.846 120.14v17.605l42.408-24.484z"/>
  </mask>
  <path fill="#2D1EA6" d="M99.254 95.654 56.846 120.14v17.605l42.408-24.484z"/>
  <path fill="#AEA4FF" d="M57.886 119.538v17.606l-2.08 1.201v-17.606z" mask="url(#c)"/>
  <mask id="d" fill="#fff">
    <path d="m99.254 116.61-42.408 24.485v17.487l42.408-24.484z"/>
  </mask>
  <path fill="#2D1EA6" d="m99.254 116.61-42.408 24.485v17.487l42.408-24.484z"/>
  <path fill="#AEA4FF" d="M57.886 140.494v17.487l-2.08 1.202v-17.488z" mask="url(#d)"/>
  <path fill="#6B59FF" d="m99.255 116.613-40.953 23.645-1.456-.841L97.8 115.773z"/>
  <path fill="#06061B" d="m74.703 135.535-.873.504v8.164l.873-.504z"/>
  <path fill="#402FC8" d="m75.576 135.028-.873.505v8.165l.873.505z"/>
  <path fill="#6B59FF" d="m75.576 144.203-1.747 1.011v-1.011l.874-.504z"/>
  <path fill="#06061B" d="m77.325 134.02-.873.504v8.164l.873-.504z"/>
  <path fill="#402FC8" d="m78.198 133.514-.873.504v8.166l.873.504z"/>
  <path fill="#6B59FF" d="m78.198 142.688-1.747 1.011v-1.011l.874-.504z"/>
  <path fill="#06061B" d="m79.946 132.505-.873.505v8.163l.873-.504z"/>
  <path fill="#402FC8" d="m80.819 131.999-.873.504v8.166l.873.504z"/>
  <path fill="#6B59FF" d="m80.819 141.173-1.747 1.011v-1.011l.873-.504z"/>
  <path fill="#06061B" d="m82.566 130.99-.873.505v8.164l.873-.505z"/>
  <path fill="#402FC8" d="m83.44 130.484-.874.504v8.166l.873.504z"/>
  <path fill="#6B59FF" d="m83.439 139.659-1.747 1.01v-1.01l.874-.504z"/>
  <path fill="#06061B" d="m74.703 114.637-.873.504v8.164l.873-.504z"/>
  <path fill="#402FC8" d="m75.576 114.131-.873.504v8.166l.873.504z"/>
  <path fill="#6B59FF" d="m75.576 123.305-1.747 1.011v-1.011l.874-.504z"/>
  <path fill="#06061B" d="m77.326 113.122-.873.504v8.164l.873-.504z"/>
  <path fill="#402FC8" d="m78.2 112.616-.874.505v8.165l.873.504z"/>
  <path fill="#6B59FF" d="m78.199 121.791-1.747 1.01v-1.01l.873-.504z"/>
  <path fill="#06061B" d="m79.95 111.608-.874.504v8.164l.873-.504z"/>
  <path fill="#402FC8" d="m80.822 111.101-.873.505v8.166l.873.504z"/>
  <path fill="#6B59FF" d="m80.822 120.276-1.747 1.01v-1.01l.873-.504z"/>
  <path fill="#06061B" d="m82.573 110.093-.874.504v8.164l.874-.504z"/>
  <path fill="#402FC8" d="m83.446 109.587-.874.504v8.166l.874.504z"/>
  <path fill="#6B59FF" d="m83.445 118.761-1.747 1.01v-1.01l.874-.504zm15.809-2.151-1.456.841-2.898-1.674 1.455-.84z"/>
  <path fill="#C9C9D9" d="M96.347 114.938 56.854 137.74v1.68l39.493-22.802z"/>
  <path fill="#6B59FF" d="m58.301 140.258-1.455.84-5.906-3.41 1.456-.84zM5.033 107.84l-2.897 1.672-1.456-.84 2.898-1.673z"/>
  <path fill="#3726C2" d="m99.27 95.661-4.07-7.747-42.313 24.476 4.054 7.738z"/>
  <path stroke="#AEA4FF" stroke-width="1.201" d="m53.008 112.303 4.068 7.787M99.32 95.74l-42.244 24.35"/>
  <path fill="#00D1FF" d="m47.04 66.883 36.406 21.14-30.48 17.7-36.407-21.14z"/>
  <path fill="#008EAD" d="m20.047 86.61 27.019-15.702v4.02L23.509 88.62z"/>
  <path fill="#008EAD" d="m47.038 70.924 32.94 19.119-3.454 2.012-29.486-17.11z"/>
  <path fill="#402FC8" d="m47.04 66.883 36.41 21.144-3.47 2.017-32.94-19.092z"/>
  <path fill="#2D1EA6" d="m16.559 84.587 30.487-17.734v4.062l-26.99 15.701z"/>
  <path fill="#E2E2F0" d="M11.726 111.705 3.576 107v1.68l8.15 4.706z"/>
  <path fill="#6B59FF" d="m7.97 111.201-1.455.841-5.836-3.369 1.456-.841z"/>
  <path stroke="#AEA4FF" d="m50.941 137.693 5.909 3.395 42.4-24.476M.688 108.67l5.837 3.368 5.004-2.893"/>
  <circle cx="20.578" cy="20.578" r="20.578" fill="#2D1EA6" transform="matrix(.86603 .5 0 1 11.886 90.745)"/>
  <circle cx="20.578" cy="20.578" r="20.578" fill="#06061B" transform="matrix(.86603 .5 0 1 10.09 91.784)"/>
  <path fill="url(#e)" d="M17.495 0H83.36v81.683c0 2.958-2.78 5.365-6.196 5.365H23.68c-3.416 0-6.196-2.407-6.196-5.365V0z"/>
  <path fill="url(#f)" d="M75.31 0H25.74v84.163h49.57z"/>
  <defs>
    <linearGradient id="e" x1="50.421" x2="50.421" y1="0" y2="87.048" gradientUnits="userSpaceOnUse">
      <stop stop-color="#2EDAFF" stop-opacity="0"/>
      <stop offset="1" stop-color="#2EDAFF" stop-opacity=".2"/>
    </linearGradient>
    <linearGradient id="f" x1="50.525" x2="50.525" y1="0" y2="84.163" gradientUnits="userSpaceOnUse">
      <stop stop-color="#2EDAFF" stop-opacity="0"/>
      <stop offset=".865" stop-color="#2EDAFF" stop-opacity=".2"/>
      <stop offset="1" stop-color="#2EDAFF" stop-opacity="0"/>
    </linearGradient>
  </defs>
</svg>
